actions/128/list-add.svg

<?xml version="1.0" encoding="UTF-8" standalone="no"?>
<svg
   xmlns:dc="http://purl.org/dc/elements/1.1/"
   xmlns:cc="http://creativecommons.org/ns#"
   xmlns:rdf="http://www.w3.org/1999/02/22-rdf-syntax-ns#"
   xmlns:svg="http://www.w3.org/2000/svg"
   xmlns="http://www.w3.org/2000/svg"
   xmlns:xlink="http://www.w3.org/1999/xlink"
   id="svg5157"
   height="128"
   width="128"
   version="1.1">
  <defs
     id="defs5159">
    <linearGradient
       id="linearGradient3820-7-2-8-6">
      <stop
         offset="0"
         style="stop-color:#3d3d3d;stop-opacity:1"
         id="stop3822-2-6-5-0" />
      <stop
         offset="0.5"
         style="stop-color:#686868;stop-opacity:0.49803922"
         id="stop3864-8-7-4-1" />
      <stop
         offset="1"
         style="stop-color:#686868;stop-opacity:0"
         id="stop3824-1-2-6-7" />
    </linearGradient>
    <linearGradient
       id="linearGradient4806">
      <stop
         id="stop4808"
         style="stop-color:#ffffff;stop-opacity:1"
         offset="0" />
      <stop
         id="stop4810"
         style="stop-color:#ffffff;stop-opacity:0.23529412"
         offset="0.42447853" />
      <stop
         id="stop4812"
         style="stop-color:#ffffff;stop-opacity:0.15686275"
         offset="0.82089913" />
      <stop
         id="stop4814"
         style="stop-color:#ffffff;stop-opacity:0.39215687"
         offset="1" />
    </linearGradient>
    <linearGradient
       y2="40.495617"
       x2="71.204407"
       y1="15.369057"
       x1="71.204407"
       gradientTransform="matrix(4.16388,0,0,4.16388,-236.03265,-50.036246)"
       gradientUnits="userSpaceOnUse"
       id="linearGradient3118"
       xlink:href="#linearGradient4806" />
    <radialGradient
       r="62.769119"
       fy="186.17059"
       fx="99.157013"
       cy="186.17059"
       cx="99.157013"
       gradientTransform="matrix(0.6869404,0,0,0.21461693,-4.02174,68.573331)"
       gradientUnits="userSpaceOnUse"
       id="radialGradient3163"
       xlink:href="#linearGradient3820-7-2-8-6" />
    <radialGradient
       r="20.397499"
       fy="4.0384412"
       fx="21.994528"
       cy="4.0384412"
       cx="21.994528"
       gradientTransform="matrix(0,7.3851891,-9.7483181,0,103.39581,-164.58195)"
       gradientUnits="userSpaceOnUse"
       id="radialGradient3022"
       xlink:href="#linearGradient3242-7-3-8-0-4-58-06" />
    <linearGradient
       id="linearGradient3242-7-3-8-0-4-58-06">
      <stop
         id="stop3244-5-8-5-6-4-3-8"
         style="stop-color:#cdf87e;stop-opacity:1"
         offset="0" />
      <stop
         id="stop3246-9-5-1-5-3-0-7"
         style="stop-color:#a2e34f;stop-opacity:1"
         offset="0.26238" />
      <stop
         id="stop3248-7-2-0-7-5-35-9"
         style="stop-color:#68b723;stop-opacity:1"
         offset="0.66093999" />
      <stop
         id="stop3250-8-2-8-5-6-40-4"
         style="stop-color:#1d7e0d;stop-opacity:1"
         offset="1" />
    </linearGradient>
  </defs>
  <metadata
     id="metadata5162">
    <rdf:RDF>
      <cc:Work
         rdf:about="">
        <dc:format>image/svg+xml</dc:format>
        <dc:type
           rdf:resource="http://purl.org/dc/dcmitype/StillImage" />
        <dc:title></dc:title>
      </cc:Work>
    </rdf:RDF>
  </metadata>
  <path
     d="m 107.21186,108.52868 a 43.118644,13.471312 0 1 1 -86.237286,0 43.118644,13.471312 0 1 1 86.237286,0 z"
     id="path3818-0-5-0"
     style="fill:url(#radialGradient3163);fill-opacity:1;stroke:none" />
  <path
     d="m 64.499999,13.99818 c -28.691804,0 -52.000005,23.308193 -52.000005,51.999998 0,28.69181 23.308201,52.000022 52.000005,52.000002 28.691797,0 52.000021,-23.308192 52.000001,-52.000002 C 116.5,37.306373 93.191796,13.99818 64.499999,13.99818 Z"
     id="path2555-9"
     style="fill:url(#radialGradient3022);fill-opacity:1;stroke:none;stroke-width:1.00365412;stroke-linecap:round;stroke-linejoin:round;stroke-miterlimit:4;stroke-dasharray:none;stroke-dashoffset:0;stroke-opacity:1" />
  <path
     d="m 64.5,13.998179 c -28.691806,0 -52.000001,23.308189 -52.000001,51.999997 0,28.691808 23.308195,52.000014 52.000001,52.000004 28.691802,0 52.00002,-23.308196 52,-52.000004 0,-28.691808 -23.308198,-51.999997 -52,-51.999997 z"
     id="path2555-7-1"
     style="opacity:0.5;color:#000000;fill:none;fill-opacity:1;fill-rule:nonzero;stroke:#0f5a00;stroke-width:1;stroke-linecap:round;stroke-linejoin:round;stroke-miterlimit:4;stroke-opacity:1;stroke-dasharray:none;stroke-dashoffset:0;marker:none;visibility:visible;display:inline;overflow:visible;enable-background:accumulate;clip-rule:nonzero;isolation:auto;mix-blend-mode:normal;color-interpolation:sRGB;color-interpolation-filters:linearRGB;solid-color:#000000;solid-opacity:1;filter-blend-mode:normal;filter-gaussianBlur-deviation:0;color-rendering:auto;image-rendering:auto;shape-rendering:auto;text-rendering:auto" />
  <path
     d="m 115.5,65.998181 c 0,28.166516 -22.833502,50.999989 -51.000026,50.999989 -28.166487,0 -50.999973,-22.833473 -50.999973,-50.999989 0,-28.166517 22.833486,-50.999991 50.999973,-50.999991 28.166524,0 51.000026,22.833474 51.000026,50.999991 z"
     id="path3019"
     style="opacity:0.7;color:#000000;fill:none;stroke:url(#linearGradient3118);stroke-width:1;stroke-linecap:round;stroke-linejoin:round;stroke-miterlimit:4;stroke-opacity:1;stroke-dasharray:none;stroke-dashoffset:0;marker:none;visibility:visible;display:inline;overflow:visible;enable-background:accumulate" />
  <path
     d="M 57.5,36.957031 A 1.0440321,1.0440321 0 0 0 56.457031,38 l 0,21.958984 -21.457031,0 a 1.0440321,1.0440321 0 0 0 -1.042969,1.042969 l 0,12 A 1.0440321,1.0440321 0 0 0 35,74.044922 l 21.457031,0 0,21.955078 A 1.0440321,1.0440321 0 0 0 57.5,97.042969 l 13,0 A 1.0440321,1.0440321 0 0 0 71.542969,96 l 0,-21.955078 21.457031,0 a 1.0440321,1.0440321 0 0 0 1.042969,-1.042969 l 0,-12 A 1.0440321,1.0440321 0 0 0 93,59.958984 l -21.457031,0 0,-21.958984 A 1.0440321,1.0440321 0 0 0 70.5,36.957031 l -13,0 z"
     id="path4306"
     style="color:#000000;clip-rule:nonzero;display:inline;overflow:visible;visibility:visible;opacity:0.15;isolation:auto;mix-blend-mode:normal;color-interpolation:sRGB;color-interpolation-filters:linearRGB;solid-color:#000000;solid-opacity:1;fill:#206612;fill-opacity:1;fill-rule:evenodd;stroke:none;stroke-width:1;stroke-linecap:butt;stroke-linejoin:miter;stroke-miterlimit:4;stroke-dasharray:none;stroke-dashoffset:0;stroke-opacity:1;marker:none;color-rendering:auto;image-rendering:auto;shape-rendering:auto;text-rendering:auto;enable-background:accumulate;filter-blend-mode:normal;filter-gaussianBlur-deviation:0" />
  <path
     style="color:#000000;display:inline;overflow:visible;visibility:visible;fill:#206612;fill-opacity:1;fill-rule:evenodd;stroke:none;stroke-width:1;marker:none;enable-background:accumulate;clip-rule:nonzero;opacity:0.3;isolation:auto;mix-blend-mode:normal;color-interpolation:sRGB;color-interpolation-filters:linearRGB;solid-color:#000000;solid-opacity:1;stroke-linecap:butt;stroke-linejoin:miter;stroke-miterlimit:4;stroke-dasharray:none;stroke-dashoffset:0;stroke-opacity:1;filter-blend-mode:normal;filter-gaussianBlur-deviation:0;color-rendering:auto;image-rendering:auto;shape-rendering:auto;text-rendering:auto"
     id="rect3007-2"
     d="m 57.500003,38.000001 0,23.001819 -22.500003,0 0,12 22.500003,0 0,22.99818 13,0 0,-22.99818 22.499997,0 0,-12 -22.499997,0 0,-23.001819 z" />
  <path
     style="color:#000000;display:inline;overflow:visible;visibility:visible;fill:#ffffff;fill-opacity:1;fill-rule:evenodd;stroke:none;stroke-width:1;marker:none;enable-background:accumulate"
     id="rect3007"
     d="M 57.500003,36.998181 57.500003,60 35,60 l 0,12 22.500003,0 0,22.99818 13,0 0,-22.99818 L 93,72 l 0,-12 -22.499997,0 0,-23.001819 z" />
</svg>

<svg xmlns="http://www.w3.org/2000/svg" xmlns:xlink="http://www.w3.org/1999/xlink" viewBox="0 0 128 128"><defs><linearGradient id="b"><stop offset="0" stop-color="#3d3d3d"/><stop offset=".5" stop-color="#686868" stop-opacity=".498"/><stop offset="1" stop-color="#686868" stop-opacity="0"/></linearGradient><linearGradient id="a"><stop offset="0" stop-color="#fff"/><stop offset=".424" stop-color="#fff" stop-opacity=".235"/><stop offset=".821" stop-color="#fff" stop-opacity=".157"/><stop offset="1" stop-color="#fff" stop-opacity=".392"/></linearGradient><linearGradient y2="40.496" x2="71.204" y1="15.369" x1="71.204" gradientTransform="translate(-236.033 -50.036) scale(4.16388)" gradientUnits="userSpaceOnUse" id="f" xlink:href="#a"/><radialGradient r="62.769" fy="186.171" fx="99.157" cy="186.171" cx="99.157" gradientTransform="matrix(.68694 0 0 .21462 -4.022 68.573)" gradientUnits="userSpaceOnUse" id="d" xlink:href="#b"/><radialGradient r="20.397" fy="4.038" fx="21.995" cy="4.038" cx="21.995" gradientTransform="matrix(0 7.3852 -9.74832 0 103.396 -164.582)" gradientUnits="userSpaceOnUse" id="e" xlink:href="#c"/><linearGradient id="c"><stop offset="0" stop-color="#cdf87e"/><stop offset=".262" stop-color="#a2e34f"/><stop offset=".661" stop-color="#68b723"/><stop offset="1" stop-color="#1d7e0d"/></linearGradient></defs><path d="M107.212 108.53a43.12 13.47 0 1 1-86.237 0 43.12 13.47 0 1 1 86.237 0z" fill="url(#d)"/><path d="M64.5 13.998c-28.692 0-52 23.308-52 52s23.308 52 52 52 52-23.308 52-52-23.308-52-52-52z" fill="url(#e)"/><path d="M64.5 13.998c-28.692 0-52 23.308-52 52s23.308 52 52 52 52-23.308 52-52-23.308-52-52-52z" style="isolation:auto;mix-blend-mode:normal;filter-blend-mode:normal;filter-gaussianBlur-deviation:0" opacity=".5" color="#000" fill="none" stroke="#0f5a00" stroke-linecap="round" stroke-linejoin="round" overflow="visible"/><path d="M115.5 65.998c0 28.167-22.834 51-51 51-28.167 0-51-22.833-51-51 0-28.166 22.833-51 51-51 28.166 0 51 22.834 51 51z" opacity=".7" color="#000" fill="none" stroke="url(#f)" stroke-linecap="round" stroke-linejoin="round" overflow="visible"/><path d="M57.5 36.957A1.044 1.044 0 0 0 56.457 38v21.96H35A1.044 1.044 0 0 0 33.957 61v12A1.044 1.044 0 0 0 35 74.045h21.457V96a1.044 1.044 0 0 0 1.043 1.043h13A1.044 1.044 0 0 0 71.543 96V74.045H93a1.044 1.044 0 0 0 1.043-1.043v-12A1.044 1.044 0 0 0 93 59.96H71.543V38a1.044 1.044 0 0 0-1.043-1.043h-13z" style="isolation:auto;mix-blend-mode:normal;filter-blend-mode:normal;filter-gaussianBlur-deviation:0" color="#000" overflow="visible" opacity=".15" fill="#206612" fill-rule="evenodd"/><path style="isolation:auto;mix-blend-mode:normal;filter-blend-mode:normal;filter-gaussianBlur-deviation:0" d="M57.5 38v23.002H35v12h22.5V96h13V73.002H93v-12H70.5V38z" color="#000" overflow="visible" fill="#206612" fill-rule="evenodd" opacity=".3"/><path d="M57.5 36.998V60H35v12h22.5v22.998h13V72H93V60H70.5V36.998z" color="#000" overflow="visible" fill="#fff" fill-rule="evenodd"/></svg>
